frontend/src/asset/logo.svg

<svg width="114" height="17" viewBox="0 0 114 17" fill="none" xmlns="http://www.w3.org/2000/svg">
<path d="M0.167969 0.736328H3.26367V8.63672L11.3203 0.736328H15.2852L7.76562 8.02148L15.2852 16H11.1641L5.53906 10.1797L3.26367 12.377V16H0.167969V0.736328ZM13.9102 8.32422C13.9102 7.17188 14.1217 6.11719 14.5449 5.16016C14.9681 4.20312 15.5605 3.38281 16.3223 2.69922C17.0905 2.00911 18.0085 1.47526 19.0762 1.09766C20.1504 0.720052 21.3385 0.53125 22.6406 0.53125C23.9362 0.53125 25.1211 0.720052 26.1953 1.09766C27.2695 1.47526 28.1875 2.00911 28.9492 2.69922C29.7174 3.38281 30.3132 4.20312 30.7363 5.16016C31.1595 6.11719 31.3711 7.17188 31.3711 8.32422C31.3711 9.48307 31.1595 10.5475 30.7363 11.5176C30.3132 12.4811 29.7174 13.3112 28.9492 14.0078C28.1875 14.7044 27.2695 15.248 26.1953 15.6387C25.1211 16.0228 23.9362 16.2148 22.6406 16.2148C21.3385 16.2148 20.1504 16.0228 19.0762 15.6387C18.0085 15.248 17.0905 14.7044 16.3223 14.0078C15.5605 13.3112 14.9681 12.4811 14.5449 11.5176C14.1217 10.5475 13.9102 9.48307 13.9102 8.32422ZM17.0059 8.32422C17.0059 9.11198 17.1458 9.82161 17.4258 10.4531C17.7122 11.0846 18.1061 11.625 18.6074 12.0742C19.1152 12.5169 19.7109 12.8587 20.3945 13.0996C21.0846 13.3405 21.8333 13.4609 22.6406 13.4609C23.4479 13.4609 24.1934 13.3405 24.877 13.0996C25.5671 12.8587 26.1628 12.5169 26.6641 12.0742C27.1654 11.625 27.5592 11.0846 27.8457 10.4531C28.1322 9.82161 28.2754 9.11198 28.2754 8.32422C28.2754 7.53646 28.1322 6.83008 27.8457 6.20508C27.5592 5.58008 27.1654 5.05273 26.6641 4.62305C26.1628 4.18685 25.5671 3.85482 24.877 3.62695C24.1934 3.39909 23.4479 3.28516 22.6406 3.28516C21.8333 3.28516 21.0846 3.39909 20.3945 3.62695C19.7109 3.85482 19.1152 4.18685 18.6074 4.62305C18.1061 5.05273 17.7122 5.58008 17.4258 6.20508C17.1458 6.83008 17.0059 7.53646 17.0059 8.32422ZM32.7891 0.736328H35.8848L45.3965 5.7168V0.736328H48.4922V16H45.3965V8.99805L35.8848 4.04688V16H32.7891V0.736328ZM50.7891 0.736328H53.8848L63.3965 5.7168V0.736328H66.4922V16H63.3965V8.99805L53.8848 4.04688V16H50.7891V0.736328ZM68.8086 0.736328H81.8066V3.45117H71.9043V6.49805H80.6738V9.04688H71.9043V13.2949H82.0117V16H68.8086V0.736328ZM82.5215 8.27539C82.5215 7.18815 82.7266 6.17578 83.1367 5.23828C83.5469 4.29427 84.1393 3.47721 84.9141 2.78711C85.6953 2.09049 86.6458 1.54362 87.7656 1.14648C88.8919 0.749349 90.1647 0.550781 91.584 0.550781C92.8275 0.550781 93.9668 0.677734 95.002 0.931641C96.0436 1.17904 97.0104 1.5599 97.9023 2.07422L96.4766 4.41797C96.2096 4.24219 95.9004 4.08594 95.5488 3.94922C95.2038 3.8125 94.8327 3.69857 94.4355 3.60742C94.0449 3.50977 93.638 3.4349 93.2148 3.38281C92.7982 3.33073 92.3848 3.30469 91.9746 3.30469C90.985 3.30469 90.1029 3.42839 89.3281 3.67578C88.5534 3.91667 87.8991 4.25846 87.3652 4.70117C86.8379 5.13737 86.4342 5.66146 86.1543 6.27344C85.8809 6.87891 85.7441 7.54622 85.7441 8.27539C85.7441 9.0306 85.8874 9.72396 86.1738 10.3555C86.4603 10.987 86.8737 11.5339 87.4141 11.9961C87.9609 12.4518 88.625 12.8099 89.4062 13.0703C90.194 13.3242 91.0827 13.4512 92.0723 13.4512C92.5215 13.4512 92.9674 13.4186 93.4102 13.3535C93.8529 13.2884 94.2793 13.2005 94.6895 13.0898C95.1061 12.9727 95.5065 12.8359 95.8906 12.6797C96.2747 12.5169 96.6328 12.3411 96.9648 12.1523L98.3906 14.4961C97.5573 15.0299 96.5938 15.4499 95.5 15.7559C94.4062 16.0553 93.2441 16.2051 92.0137 16.2051C90.4447 16.2051 89.0677 16.0033 87.8828 15.5996C86.6979 15.1895 85.7083 14.6296 84.9141 13.9199C84.1198 13.2038 83.5208 12.3639 83.1172 11.4004C82.7201 10.4303 82.5215 9.38867 82.5215 8.27539ZM104.408 3.45117H98.7734V0.736328H113.139V3.45117H107.504V16H104.408V3.45117Z" fill="#111111"/>
</svg>

<svg xmlns="http://www.w3.org/2000/svg" width="114" height="17" fill="none"><path fill="#111" d="M.168.736h3.096v7.9l8.056-7.9h3.965l-7.52 7.285L15.286 16h-4.12l-5.626-5.82-2.275 2.197V16H.168zM13.91 8.324q0-1.728.635-3.164a7.15 7.15 0 0 1 1.777-2.46q1.153-1.036 2.754-1.602Q20.686.53 22.641.53q1.943 0 3.554.567 1.612.566 2.754 1.601a7.1 7.1 0 0 1 1.787 2.461q.635 1.436.635 3.164 0 1.739-.635 3.194a7.3 7.3 0 0 1-1.787 2.49q-1.143 1.044-2.754 1.63-1.611.577-3.554.577-1.953 0-3.565-.576-1.601-.587-2.754-1.631a7.3 7.3 0 0 1-1.777-2.49q-.635-1.455-.635-3.194m3.096 0q0 1.182.42 2.13.43.946 1.181 1.62a5.4 5.4 0 0 0 1.788 1.026 6.8 6.8 0 0 0 2.246.36q1.21 0 2.236-.36a5.3 5.3 0 0 0 1.787-1.026q.752-.674 1.182-1.62.43-.948.43-2.13t-.43-2.119a4.55 4.55 0 0 0-1.182-1.582 5.1 5.1 0 0 0-1.787-.996 7 7 0 0 0-2.236-.342q-1.212 0-2.246.342-1.026.342-1.788.996a4.55 4.55 0 0 0-1.181 1.582q-.42.937-.42 2.12M32.789.736h3.096l9.512 4.98V.737h3.095V16h-3.095V8.998l-9.512-4.951V16h-3.096zm18 0h3.096l9.512 4.98V.737h3.095V16h-3.096V8.998l-9.511-4.951V16h-3.096zm18.02 0h12.998v2.715h-9.903v3.047h8.77v2.549h-8.77v4.248h10.108V16H68.809zm13.713 7.54q0-1.631.615-3.038a7 7 0 0 1 1.777-2.45q1.172-1.046 2.852-1.642 1.69-.595 3.818-.595 1.865 0 3.418.38 1.563.372 2.9 1.143l-1.425 2.344a5 5 0 0 0-.928-.469 8 8 0 0 0-1.114-.342q-.585-.146-1.22-.224a10 10 0 0 0-1.24-.078q-1.485 0-2.647.37-1.162.362-1.963 1.026-.79.654-1.21 1.572a4.8 4.8 0 0 0-.41 2.002q0 1.134.429 2.08.43.948 1.24 1.641.82.684 1.992 1.074 1.182.381 2.666.381.674 0 1.338-.098.665-.097 1.28-.263a11 11 0 0 0 1.2-.41q.577-.244 1.075-.528l1.426 2.344q-1.25.801-2.891 1.26-1.641.45-3.486.45-2.354 0-4.131-.606-1.778-.615-2.969-1.68a7 7 0 0 1-1.797-2.52 8.2 8.2 0 0 1-.596-3.125m21.886-4.825h-5.635V.736h14.366v2.715h-5.635V16h-3.096z"/></svg>
